brandFactory_export/1.Light/Intranet_1Light.svg

<?xml version="1.0" encoding="UTF-8"?>
<svg width="24px" height="24px" viewBox="0 0 24 24" version="1.1" xmlns="http://www.w3.org/2000/svg" xmlns:xlink="http://www.w3.org/1999/xlink">
    <title>1.Light/Intranet_1Light</title>
    <g id="Symbols" stroke="none" stroke-width="1" fill="none" fill-rule="evenodd">
        <g id="1.Light/Intranet_1Light" fill="#5CB615" fill-rule="nonzero">
            <path d="M21.0386555,19.3277311 C21.9058824,19.3277311 22.6117647,20.0168067 22.6117647,20.8638655 C22.6117647,21.7176471 21.9058824,22.4067227 21.0386555,22.4067227 C20.1613445,22.4067227 19.4554622,21.7176471 19.4554622,20.8638655 C19.4588235,20.0134454 20.1647059,19.3277311 21.0386555,19.3277311 Z M7.11932773,17.1831933 C9.03529412,16.7226891 10.8201681,16.594958 11.6168067,16.5546218 L11.6168067,22.5882353 C9.69411765,22.2756303 8.0302521,20.1815126 7.11932773,17.1831933 Z M2.94453782,18.9042017 C3.89243697,18.2655462 5.00168067,17.794958 6.14117647,17.4487395 C6.78655462,19.5932773 7.81512605,21.3142857 9.06890756,22.3831933 C6.32268908,21.912605 4.28571429,20.7529412 2.94453782,18.9042017 L2.94453782,18.9042017 Z M2.41008403,18.0705882 C1.56302521,16.5579832 1.09915966,14.6689076 1.02857143,12.4067227 L5.35462185,12.4067227 C5.39495798,13.8521008 5.57647059,15.2369748 5.8789916,16.497479 C4.66890756,16.8605042 3.4487395,17.3714286 2.41008403,18.0705882 Z M2.38991597,5.58319328 C3.45882353,6.28907563 4.66890756,6.80336134 5.86890756,7.16638655 C5.55630252,8.47394958 5.38487395,9.9092437 5.35462185,11.4218487 L1.02857143,11.4218487 C1.06890756,9.08235294 1.52268908,7.1394958 2.38991597,5.58319328 Z M9.0789916,1.24033613 C7.81848739,2.31932773 6.78655462,4.05042017 6.13445378,6.21512605 C5.01512605,5.87226891 3.89579832,5.39831933 2.92773109,4.74957983 C4.26554622,2.8907563 6.31260504,1.7210084 9.0789916,1.24033613 Z M11.6201681,1.03193277 L11.6201681,7.09579832 C10.8235294,7.05546218 9.0487395,6.93781513 7.11260504,6.47731092 C8.0302521,3.45882353 9.68403361,1.35798319 11.6201681,1.03193277 Z M6.36302521,11.4252101 C6.39327731,10.010084 6.56470588,8.66218487 6.85714286,7.43193277 C8.90420168,7.93277311 10.7798319,8.05042017 11.6168067,8.08067227 L11.6168067,11.4218487 L6.36302521,11.4218487 L6.36302521,11.4252101 Z M11.6201681,12.4067227 L11.6201681,15.5731092 C10.7932773,15.6033613 8.90756303,15.7277311 6.8605042,16.2319328 C6.57815126,15.0521008 6.40672269,13.7647059 6.36638655,12.4067227 L11.6201681,12.4067227 Z M21.0386555,1.42521008 C21.9058824,1.42521008 22.6117647,2.1210084 22.6117647,2.96806723 C22.6117647,3.81512605 21.9058824,4.50084034 21.0386555,4.50084034 C20.1613445,4.50084034 19.4554622,3.81512605 19.4554622,2.96806723 C19.4588235,2.12436975 20.1647059,1.42521008 21.0386555,1.42521008 Z M21.0386555,10.410084 C21.9058824,10.410084 22.6117647,11.0991597 22.6117647,11.9428571 C22.6117647,12.7966387 21.9058824,13.4857143 21.0386555,13.4857143 C20.1613445,13.4857143 19.4554622,12.7966387 19.4554622,11.9428571 C19.4588235,11.0991597 20.1647059,10.410084 21.0386555,10.410084 Z M12.7495798,12.4369748 L18.497479,12.4369748 C18.7394958,13.5966387 19.7781513,14.4739496 21.0386555,14.4739496 C22.4605042,14.4739496 23.6235294,13.3411765 23.6235294,11.9462185 C23.6235294,10.5613445 22.4638655,9.43193277 21.0386555,9.43193277 C19.7781513,9.43193277 18.7394958,10.3058824 18.497479,11.4554622 L12.7495798,11.4554622 C12.7092437,11.4554622 12.6689076,11.4756303 12.6285714,11.4857143 L12.6285714,9.62689076 L16.3697479,9.62689076 C16.6420168,9.62689076 16.8739496,9.40840336 16.8739496,9.13613445 L16.9344538,3.46218487 L18.4470588,3.46218487 C18.4672269,3.46218487 18.4773109,3.45210084 18.497479,3.45210084 C18.7294118,4.61176471 19.7781513,5.48571429 21.0386555,5.48571429 C22.4605042,5.48571429 23.6235294,4.35630252 23.6235294,2.96806723 C23.6235294,1.57310924 22.4638655,0.443697479 21.0386555,0.443697479 C19.7781513,0.443697479 18.7294118,1.32773109 18.497479,2.48739496 C18.4773109,2.48739496 18.4672269,2.47731092 18.4470588,2.47731092 L16.4302521,2.47731092 C16.1579832,2.47731092 15.9361345,2.69243697 15.9260504,2.96134454 L15.8655462,8.64201681 L12.6285714,8.64201681 L12.6285714,0.490756303 C12.6285714,0.225210084 12.4067227,0 12.1243697,0 C4.19831933,0 0,4.0907563 0,11.8151261 C0,11.8352941 0,11.8655462 0.0100840336,11.892437 C0,11.902521 0,11.902521 0,11.912605 C0,11.912605 0.0100840336,11.9226891 0.0100840336,11.9327731 C0.0201680672,14.7630252 0.605042017,17.102521 1.73445378,18.9210084 C1.75462185,18.9915966 1.78487395,19.0487395 1.82521008,19.1092437 C1.84537815,19.1394958 1.88571429,19.1495798 1.90588235,19.1697479 C3.86218487,22.097479 7.2907563,23.6235294 12.1243697,23.6235294 C12.4067227,23.6235294 12.6285714,23.405042 12.6285714,23.1327731 L12.6285714,15.189916 L15.8655462,15.189916 L15.9260504,20.8705882 C15.9361345,21.1361345 16.1579832,21.3546218 16.4302521,21.3546218 L18.4470588,21.3546218 C18.4672269,21.3546218 18.4773109,21.3546218 18.497479,21.3445378 C18.7294118,22.5042017 19.7781513,23.3882353 21.0386555,23.3882353 C22.4605042,23.3882353 23.6235294,22.2554622 23.6235294,20.8605042 C23.6235294,19.4722689 22.4638655,18.3428571 21.0386555,18.3428571 C19.7781513,18.3428571 18.7294118,19.2201681 18.497479,20.3764706 C18.4773109,20.3764706 18.4672269,20.3663866 18.4470588,20.3663866 L16.9344538,20.3663866 L16.8739496,14.692437 C16.8739496,14.4168067 16.6420168,14.2016807 16.3697479,14.2016807 L12.6285714,14.2016807 L12.6285714,12.4134454 C12.6689076,12.4268908 12.7092437,12.4369748 12.7495798,12.4369748 Z" id="Intranet_1Light"></path>
        </g>
    </g>
</svg>

<svg width="24" height="24" viewBox="0 0 24 24" xmlns="http://www.w3.org/2000/svg"><path d="M21.039 19.328c.867 0 1.573.689 1.573 1.536 0 .854-.706 1.543-1.573 1.543-.878 0-1.584-.69-1.584-1.543.004-.85.71-1.536 1.584-1.536zm-13.92-2.145c1.916-.46 3.701-.588 4.498-.628v6.033c-1.923-.312-3.587-2.406-4.498-5.405zm-4.174 1.721c.947-.638 2.057-1.109 3.196-1.455.646 2.144 1.674 3.865 2.928 4.934-2.746-.47-4.783-1.63-6.124-3.479zm-.535-.833c-.847-1.513-1.31-3.402-1.381-5.664h4.326c.04 1.445.221 2.83.524 4.09-1.21.364-2.43.874-3.469 1.574zM2.39 5.583c1.069.706 2.279 1.22 3.479 1.583-.313 1.308-.484 2.743-.514 4.256H1.029c.04-2.34.494-4.283 1.36-5.839zM9.079 1.24c-1.26 1.08-2.292 2.81-2.945 4.975-1.119-.343-2.238-.817-3.206-1.465C4.266 2.89 6.313 1.72 9.079 1.24zm2.541-.208v6.064c-.796-.04-2.571-.158-4.507-.619.917-3.018 2.571-5.119 4.507-5.445zM6.363 11.425c.03-1.415.202-2.763.494-3.993 2.047.5 3.923.618 4.76.649v3.34H6.363v.004zm5.257.982v3.166c-.827.03-2.712.155-4.76.659a18.9 18.9 0 01-.494-3.825h5.254zM21.04 1.425c.867 0 1.573.696 1.573 1.543s-.706 1.533-1.573 1.533c-.878 0-1.584-.686-1.584-1.533.004-.844.71-1.543 1.584-1.543zm0 8.985c.867 0 1.573.69 1.573 1.533 0 .854-.706 1.543-1.573 1.543-.878 0-1.584-.69-1.584-1.543.004-.844.71-1.533 1.584-1.533zm-8.29 2.027h5.748a2.582 2.582 0 002.542 2.037c1.422 0 2.585-1.133 2.585-2.528 0-1.385-1.16-2.514-2.585-2.514-1.26 0-2.3.874-2.542 2.023H12.75c-.04 0-.081.02-.121.03V9.628h3.74a.5.5 0 00.505-.49l.06-5.675h1.513c.02 0 .03-.01.05-.01.232 1.16 1.281 2.034 2.542 2.034 1.422 0 2.585-1.13 2.585-2.518 0-1.395-1.16-2.524-2.585-2.524-1.26 0-2.31.884-2.542 2.043-.02 0-.03-.01-.05-.01H16.43a.504.504 0 00-.504.484l-.06 5.681h-3.237V.491A.499.499 0 0012.124 0C4.198 0 0 4.09 0 11.815c0 .02 0 .05.01.077-.01.01-.01.01-.01.02 0 0 .01.01.01.02.01 2.831.595 5.17 1.724 6.989.02.07.05.128.091.188.02.03.06.04.08.06 1.957 2.928 5.386 4.455 10.22 4.455a.494.494 0 00.504-.491V15.19h3.237l.06 5.68c.01.266.232.485.504.485h2.017c.02 0 .03 0 .05-.01.232 1.16 1.281 2.043 2.542 2.043 1.422 0 2.585-1.133 2.585-2.527 0-1.389-1.16-2.518-2.585-2.518-1.26 0-2.31.877-2.542 2.033-.02 0-.03-.01-.05-.01h-1.513l-.06-5.674a.499.499 0 00-.504-.49h-3.741v-1.789c.04.014.08.024.12.024z" fill="#5CB615" fill-rule="nonzero"/></svg>
